X: 5
T: The Mountain Top
R: reel
M: 4/4
L: 1/8
K: Gmaj
(GE)D(B c)(AB)(G|A)(GB)((G A)E) Ez|(GE)D(B c)(AB)(G|A)cBG A2 G2|
(GE)D(B c)(AB)(G|A)(GB)((G A)E) Ez|GEDE GABd|edcA G2 Gz||
(Bd) d2 efge|d2 (BG) (AE) E2|(Bd) d2 efge|dBGB A2 A2 |
(Bd) d2 efge|d2 (BG) (AE) E2|GEDE G2 (AB)|dBGB AcBA||


Tune 529	Setting 27501

